X:1
T:[ID 5-52]
T:[ID 5-52]
T:Bezeichnung standardisiert: Damny Lisette; Le Duc de Richelieu; Le Duc de Richelieu [mit Trio] In dieser Quelle auch als: Damny Lisette In anderer Quelle: Nom 10, Trio  - Hs aus Wernigerode 1786 (Hinw. Th. Behr);
T:Urheber unbekannt Datum in der hier transkribierten schriftlichen Quelle: 1776 - 1791
C:Urheber unbekannt
C:Datum in der hier transkribierten schriftlichen Quelle: 1776 - 1791
L:1/8
M:2/4
K:D
V:1 treble 
V:1
 df/g/ af | gbd'f | g(e/f/) ge | fd cA | d(f/g/) af | g(b/c'/) d'b |{d'} c'b/a/ c'/b/a/g/ | %7
 a2 a2 :: a(f/g/) af | ge cA | g(e/f/) ge | fd cA | d(f/g/) af | gbag |{g} fe/d/ f/e/d/c/ | %15
 d2 d2 :|[K:Dmin][M:2/4]"^Trio" (!fermata!d/e/f/g/) ag | fefd | (^c/d/e/f/) gf | ed^cA | %20
 (d/e/f/g/) ag | fefd | f2 Tg2 | a4 :| a2 ag/a/ | bagf | g2 g(f/g/) | agfe | (d/e/f/g/) ag | fefd | %30
 e2 A^c | d2 D2 :| %32

